assets/icons/linkedinUser.svg

<svg fill="none" height="24" viewBox="0 0 24 24" width="24" xmlns="http://www.w3.org/2000/svg"><path d="m0 1.719c0-.9495.789-1.719 1.7625-1.719h20.475c.9735 0 1.7625.7695 1.7625 1.719v20.562c0 .9495-.789 1.719-1.7625 1.719h-20.475c-.9735 0-1.7625-.7695-1.7625-1.719zm7.4145 18.372v-10.8375h-3.6015v10.8375zm-1.8-12.318c1.2555 0 2.037-.831 2.037-1.872-.0225-1.0635-.78-1.872-2.013-1.872s-2.0385.81-2.0385 1.872c0 1.041.7815 1.872 1.9905 1.872zm7.362 12.318v-6.0525c0-.324.024-.648.12-.879.2595-.6465.852-1.317 1.848-1.317 1.3035 0 1.824.993 1.824 2.451v5.7975h3.6015v-6.216c0-3.33-1.776-4.878-4.146-4.878-1.911 0-2.7675 1.05-3.2475 1.7895v.0375h-.024c.008-.0125.016-.025.024-.0375v-1.533h-3.6c.045 1.017 0 10.8375 0 10.8375z" fill="#888"/></svg>

<svg width="24" height="24" viewBox="0 0 24 24" fill="none" xmlns="http://www.w3.org/2000/svg">
<path d="M0 1.719C0 0.7695 0.789 0 1.7625 0H22.2375C23.211 0 24 0.7695 24 1.719V22.281C24 23.2305 23.211 24 22.2375 24H1.7625C0.789 24 0 23.2305 0 22.281V1.719ZM7.4145 20.091V9.2535H3.813V20.091H7.4145ZM5.6145 7.773C6.87 7.773 7.6515 6.942 7.6515 5.901C7.629 4.8375 6.8715 4.029 5.6385 4.029C4.4055 4.029 3.6 4.839 3.6 5.901C3.6 6.942 4.3815 7.773 5.5905 7.773H5.6145ZM12.9765 20.091V14.0385C12.9765 13.7145 13.0005 13.3905 13.0965 13.1595C13.356 12.513 13.9485 11.8425 14.9445 11.8425C16.248 11.8425 16.7685 12.8355 16.7685 14.2935V20.091H20.37V13.875C20.37 10.545 18.594 8.997 16.224 8.997C14.313 8.997 13.4565 10.047 12.9765 10.7865V10.824H12.9525C12.9605 10.8115 12.9685 10.799 12.9765 10.7865V9.2535H9.3765C9.4215 10.2705 9.3765 20.091 9.3765 20.091H12.9765Z" fill="#888888"/>
</svg>
